X: 96
M:C|
L:1/8
K:A
ue|\
{g}a2.e.a {g}a2.e.a | {g}a2.e.a (fe).d.c | dfBf dfBf           | dfBa =
gabg |=20
{g}a2.e.a {g}a2.e.a | {g}a2.e.a (fe).d.c | .f(dTc).B .e(cTB).A | E2 =
ue|\
ceAe ceAe | ceAa fedc | dfBf dfBf           | dfBa gabg        |=20
ceAe ceAe | ceAa fedc | .f(dTc).B .e(cTB).A | E2 TG2 A2 z"D.C."|]


